src/images/svg/leaf.svg

<?xml version="1.0" encoding="UTF-8" standalone="no"?>
<svg
   version="1.0"
   width="963.22235pt"
   height="1291.9407pt"
   viewBox="0 0 963.22235 1291.9407"
   preserveAspectRatio="xMidYMid"
   id="svg7"
   sodipodi:docname="leaf.svg"
   inkscape:version="1.4.3 (0d15f75042, 2025-12-25)"
   xmlns:inkscape="http://www.inkscape.org/namespaces/inkscape"
   xmlns:sodipodi="http://sodipodi.sourceforge.net/DTD/sodipodi-0.dtd"
   xmlns="http://www.w3.org/2000/svg"
   xmlns:svg="http://www.w3.org/2000/svg">
  <sodipodi:namedview
     id="namedview1"
     pagecolor="#ffffff"
     bordercolor="#000000"
     borderopacity="0.25"
     inkscape:showpageshadow="2"
     inkscape:pageopacity="0.0"
     inkscape:pagecheckerboard="0"
     inkscape:deskcolor="#d1d1d1"
     inkscape:document-units="pt"
     inkscape:zoom="0.44003569"
     inkscape:cx="641.99339"
     inkscape:cy="861.29378"
     inkscape:window-width="1920"
     inkscape:window-height="1011"
     inkscape:window-x="0"
     inkscape:window-y="0"
     inkscape:window-maximized="1"
     inkscape:current-layer="svg7" />
  <defs
     id="defs7" />
  <metadata
     id="metadata1">
Created by potrace 1.15, written by Peter Selinger 2001-2017
</metadata>
  <g
     transform="matrix(0.09988313,0,0,-0.09988313,7.3152958,1285.8514)"
     fill="#000000"
     stroke="none"
     id="g7"
     style="fill:none;stroke:#35f2a4;stroke-width:50.0585034;stroke-linejoin:round;stroke-dasharray:none;stroke-opacity:0.1;paint-order:stroke fill markers">
    <path
       d="m 8767,12775 c -77,-72 -177,-239 -327,-549 -110,-226 -226,-481 -236,-520 -5,-21 -1,-22 248,-45 139,-12 255,-24 256,-26 5,-5 -61,-13 -188,-25 -169,-15 -202,-29 -292,-119 -142,-144 -263,-354 -523,-909 -150,-322 -295,-609 -327,-649 -17,-21 38,-35 157,-41 92,-4 126,-1 200,18 354,88 627,372 798,830 39,104 117,356 118,380 0,8 5,4 11,-10 17,-40 13,-303 -5,-400 -35,-178 -94,-323 -192,-471 -83,-124 -209,-251 -333,-333 -184,-123 -329,-175 -587,-212 -207,-30 -232,-36 -318,-82 -131,-68 -243,-203 -356,-431 -29,-57 -49,-106 -46,-110 4,-3 167,-6 363,-6 292,0 379,3 476,18 135,21 309,64 409,101 338,129 606,378 708,660 l 18,51 1,-36 c 0,-52 -43,-213 -77,-290 -17,-36 -47,-90 -67,-120 -20,-29 -36,-59 -36,-66 0,-7 18,-26 41,-43 136,-98 333,-94 452,10 149,131 172,359 77,770 -15,69 -60,238 -98,376 -134,479 -148,569 -186,1229 -8,138 -20,367 -25,510 -17,409 -20,456 -38,512 -19,60 -34,66 -76,28 z"
       id="path1"
       style="fill:none;stroke:#35f2a4;stroke-width:50.0585034;stroke-linejoin:round;stroke-dasharray:none;stroke-opacity:0.1;paint-order:stroke fill markers" />
    <path
       d="m 8524,12776 c -95,-30 -219,-116 -599,-418 -342,-271 -477,-366 -620,-437 -207,-103 -394,-161 -815,-251 -505,-109 -822,-200 -1224,-352 -370,-140 -795,-338 -1116,-521 -236,-134 -377,-263 -452,-414 -40,-80 -43,-92 -46,-184 -6,-149 27,-250 111,-338 37,-38 125,-91 152,-91 6,0 21,19 34,43 45,79 164,252 244,355 79,101 108,131 68,70 -75,-113 -149,-308 -181,-478 -46,-235 -48,-458 -9,-955 68,-886 163,-1407 346,-1905 40,-109 163,-394 176,-407 9,-9 91,50 138,99 54,56 119,180 146,278 24,90 24,365 -1,550 -10,77 -20,230 -23,356 -8,342 20,558 126,956 76,287 94,413 95,658 1,158 -4,229 -18,310 -23,128 -65,281 -104,376 l -29,71 67,-66 c 60,-59 178,-141 205,-141 5,0 20,55 32,123 46,255 156,507 311,712 54,70 200,223 257,268 l 40,32 -46,-60 c -192,-251 -329,-587 -459,-1120 -210,-861 -271,-1242 -271,-1685 1,-281 30,-508 93,-724 l 20,-69 22,24 c 13,13 97,105 187,204 90,99 216,235 280,301 230,241 254,285 319,590 44,212 76,452 110,839 35,404 49,506 85,630 39,134 84,243 219,525 68,140 133,281 146,312 23,56 25,58 84,78 33,11 64,20 68,20 5,0 -14,-44 -41,-97 -165,-330 -279,-744 -326,-1188 -17,-161 -20,-498 -5,-630 14,-126 31,-206 42,-199 21,13 310,410 451,620 656,976 1040,1852 1117,2553 11,96 15,111 30,111 18,0 22,-45 30,-295 7,-238 18,-325 38,-325 6,0 529,1134 571,1238 13,32 13,36 -4,48 -22,16 -18,16 -71,0 z"
       id="path2"
       style="fill:none;stroke:#35f2a4;stroke-width:50.0585034;stroke-linejoin:round;stroke-dasharray:none;stroke-opacity:0.1;paint-order:stroke fill markers" />
    <path
       d="m 3262,10320 c -62,-22 -253,-136 -430,-257 C 1474,9141 521,7649 250,6025 196,5698 185,5560 160,4885 147,4555 136,4459 76,4154 13,3836 -3,3701 3,3560 c 17,-353 190,-571 581,-736 232,-98 1060,-382 1181,-405 93,-18 277,-18 338,0 62,18 131,79 153,136 30,79 16,197 -49,415 -31,102 -83,295 -117,430 -239,945 -252,985 -355,1140 -92,139 -211,228 -527,398 -247,133 -291,162 -408,277 -65,64 -115,135 -145,209 -16,38 -12,36 78,-50 131,-124 257,-211 426,-297 140,-70 147,-72 217,-72 63,0 76,3 98,24 32,31 49,82 41,124 -4,17 -40,115 -80,217 -174,440 -264,855 -279,1290 l -5,135 14,-107 c 32,-248 93,-474 205,-752 70,-174 121,-288 305,-672 90,-188 189,-401 220,-472 165,-388 273,-763 446,-1542 39,-179 74,-327 76,-330 2,-2 37,12 78,33 174,90 329,308 426,599 57,168 78,288 86,468 7,182 -4,324 -53,670 -96,679 -134,1197 -134,1820 0,357 24,945 36,905 3,-9 39,-618 114,-1915 37,-633 76,-876 186,-1132 35,-83 120,-228 132,-228 4,0 45,75 91,166 211,416 406,720 625,972 52,60 115,140 141,178 65,97 202,371 220,440 37,143 2,436 -85,706 -31,97 -37,135 -235,1360 l -95,587 -10,268 c -12,314 -29,442 -74,575 -48,140 -84,193 -248,365 -181,189 -212,242 -212,368 -1,65 3,88 22,125 l 24,44 -27,23 c -33,29 -89,30 -163,3 z"
       id="path3"
       style="fill:none;stroke:#35f2a4;stroke-width:50.0585034;stroke-linejoin:round;stroke-dasharray:none;stroke-opacity:0.1;paint-order:stroke fill markers" />
    <path
       d="m 9226,9294 c -94,-83 -261,-147 -466,-178 -58,-9 -361,-48 -675,-86 -907,-112 -1310,-162 -1311,-163 -1,-1 -118,-153 -261,-337 -142,-184 -262,-341 -267,-348 -4,-7 19,-1 51,14 409,184 776,276 1208,304 418,26 496,32 590,46 204,29 365,86 496,174 83,56 49,16 -51,-59 -228,-171 -479,-246 -1035,-306 -495,-53 -677,-95 -901,-208 -283,-142 -528,-397 -781,-812 -95,-155 -207,-355 -202,-359 2,-2 50,-15 107,-30 288,-72 642,-54 1033,54 553,151 1105,466 1490,850 178,178 281,314 381,505 l 58,110 v -116 c 0,-125 -9,-165 -48,-218 l -25,-33 34,7 c 49,11 125,46 220,102 130,77 189,96 289,96 47,-1 98,-5 114,-10 28,-9 25,-11 -55,-37 -330,-112 -728,-360 -1074,-670 -410,-369 -855,-616 -1375,-765 -251,-71 -468,-105 -819,-126 -275,-17 -398,-38 -498,-84 -188,-88 -315,-227 -601,-657 -198,-297 -376,-602 -528,-905 -72,-145 -204,-426 -204,-436 0,-10 419,58 595,97 668,149 1314,404 1970,778 749,427 1441,958 2295,1762 185,175 185,171 -3,-63 -323,-401 -804,-889 -1190,-1206 -42,-35 -75,-66 -73,-68 12,-13 180,-34 311,-39 386,-17 770,85 1100,290 l 90,56 -80,-78 c -136,-132 -290,-219 -528,-297 -158,-52 -301,-83 -627,-136 -135,-22 -279,-46 -320,-55 -206,-41 -425,-111 -555,-177 -84,-42 -233,-142 -224,-151 9,-7 250,-57 394,-81 228,-37 428,-56 665,-64 l 215,-7 -70,-33 c -162,-77 -404,-111 -653,-92 -81,6 -236,22 -345,36 -376,47 -570,50 -781,10 -199,-37 -382,-104 -767,-278 -534,-241 -613,-268 -1044,-357 -324,-67 -462,-133 -615,-297 -87,-93 -148,-186 -280,-423 -136,-245 -219,-367 -311,-462 -41,-43 -73,-78 -70,-78 3,0 107,-10 231,-21 330,-30 816,-36 1030,-14 319,32 554,90 810,200 145,62 309,161 417,252 28,23 54,43 57,43 4,0 -35,-61 -85,-136 -50,-75 -89,-137 -87,-139 11,-9 517,145 793,243 425,151 902,369 1250,573 418,244 822,562 1075,843 57,64 106,114 108,111 2,-2 1,-29 -3,-60 -14,-116 -137,-306 -312,-482 -51,-52 -93,-97 -93,-100 0,-3 37,-3 83,-1 192,12 464,146 654,322 119,110 178,219 227,419 44,174 61,378 108,1287 17,320 17,1216 0,1440 -36,486 -90,858 -180,1241 l -27,117 z"
       id="path4"
       style="fill:none;stroke:#35f2a4;stroke-width:50.0585034;stroke-linejoin:round;stroke-dasharray:none;stroke-opacity:0.1;paint-order:stroke fill markers" />
    <path
       d="M 5940,7956 C 5673,7722 5436,7425 5146,6961 5103,6893 4919,6578 4738,6261 3829,4677 3415,3994 2882,3205 2252,2271 1618,1478 982,829 L 799,642 795,484 C 789,289 774,155 749,76 739,43 732,15 733,14 c 3,-3 247,261 367,396 553,623 1115,1373 1640,2185 460,712 871,1410 1590,2700 826,1482 1114,1951 1574,2560 121,159 140,185 134,185 -2,0 -46,-38 -98,-84 z"
       id="path5"
       style="fill:none;stroke:#35f2a4;stroke-width:50.0585034;stroke-linejoin:round;stroke-dasharray:none;stroke-opacity:0.1;paint-order:stroke fill markers" />
    <path
       d="m 9345,4869 c -4,-6 -5,-12 -2,-15 2,-3 7,2 10,11 7,17 1,20 -8,4 z"
       id="path6"
       style="fill:none;stroke:#35f2a4;stroke-width:50.0585034;stroke-linejoin:round;stroke-dasharray:none;stroke-opacity:0.1;paint-order:stroke fill markers" />
    <path
       d="m 9265,4738 c -79,-109 -235,-265 -311,-311 -77,-47 -174,-83 -256,-97 -35,-6 -160,-15 -278,-20 -156,-7 -238,-15 -299,-30 -147,-36 -261,-104 -312,-186 -26,-42 -28,-40 76,-83 158,-66 337,-97 520,-88 180,8 333,47 488,122 l 72,36 -51,-48 c -186,-175 -511,-251 -952,-223 -97,6 -231,15 -297,20 -452,36 -763,-20 -980,-175 -110,-78 -175,-176 -175,-263 0,-110 89,-175 350,-256 245,-76 417,-104 675,-113 207,-7 370,6 554,43 68,14 126,23 128,20 6,-6 -104,-67 -197,-110 -362,-165 -816,-184 -1180,-49 -52,20 -192,84 -310,144 -313,158 -422,187 -654,176 -67,-3 -470,-47 -896,-97 -426,-50 -892,-104 -1035,-120 -468,-54 -605,-85 -779,-171 -145,-72 -200,-133 -303,-334 -36,-71 -77,-147 -90,-167 -12,-21 -23,-41 -23,-46 0,-5 73,-19 162,-31 90,-12 330,-49 533,-82 867,-140 1115,-165 1574,-156 218,4 317,10 471,31 461,62 724,127 899,222 86,47 201,135 252,193 l 41,46 -33,-60 c -18,-33 -50,-91 -71,-128 -21,-38 -38,-70 -38,-72 0,-2 32,-11 71,-20 418,-95 881,-39 1262,151 37,19 67,32 67,29 0,-14 -237,-158 -370,-224 -314,-156 -603,-235 -961,-262 -85,-6 -191,-8 -236,-5 -52,5 -83,3 -83,-3 0,-13 134,-133 215,-192 77,-56 233,-137 325,-169 36,-13 69,-27 74,-31 16,-14 -109,-22 -185,-11 -111,16 -213,59 -400,168 -193,114 -259,146 -371,178 -169,49 -361,55 -608,20 -105,-15 -391,-72 -399,-79 -9,-9 105,-148 179,-219 227,-216 557,-345 855,-334 111,4 103,-5 -26,-28 -207,-36 -449,0 -644,95 -130,64 -178,101 -360,278 -225,220 -295,255 -510,256 -76,1 -187,-6 -265,-17 -252,-34 -422,-16 -675,74 -404,144 -484,164 -660,164 -131,0 -210,-16 -299,-61 -58,-30 -116,-71 -116,-84 0,-11 198,-300 293,-429 182,-247 385,-470 558,-615 288,-241 614,-385 1013,-447 117,-18 186,-22 401,-22 273,-1 374,7 635,50 928,153 1795,577 2495,1221 785,721 1324,1747 1485,2826 21,141 36,287 29,287 -3,0 -32,-37 -64,-82 z"
       id="path7"
       style="fill:none;stroke:#35f2a4;stroke-width:50.0585034;stroke-linejoin:round;stroke-dasharray:none;stroke-opacity:0.1;paint-order:stroke fill markers" />
  </g>
</svg>

<?xml version="1.0" encoding="UTF-8" standalone="no"?>
<!DOCTYPE svg PUBLIC "-//W3C//DTD SVG 1.1//EN" "http://www.w3.org/Graphics/SVG/1.1/DTD/svg11.dtd">
<svg width="100%" height="100%" viewBox="0 0 377 506" version="1.1" xmlns="http://www.w3.org/2000/svg" xmlns:xlink="http://www.w3.org/1999/xlink" xml:space="preserve" xmlns:serif="http://www.serif.com/" style="fill-rule:evenodd;clip-rule:evenodd;stroke-linejoin:round;">
    <g transform="matrix(1,0,0,1,-1.971778,-1.957142)">
        <g transform="matrix(0.039405,0,0,-0.039405,2.885951,507.280102)">
            <path id="path1" d="M8767,12775C8690,12703 8590,12536 8440,12226C8330,12000 8214,11745 8204,11706C8199,11685 8203,11684 8452,11661C8591,11649 8707,11637 8708,11635C8713,11630 8647,11622 8520,11610C8351,11595 8318,11581 8228,11491C8086,11347 7965,11137 7705,10582C7555,10260 7410,9973 7378,9933C7361,9912 7416,9898 7535,9892C7627,9888 7661,9891 7735,9910C8089,9998 8362,10282 8533,10740C8572,10844 8650,11096 8651,11120C8651,11128 8656,11124 8662,11110C8679,11070 8675,10807 8657,10710C8622,10532 8563,10387 8465,10239C8382,10115 8256,9988 8132,9906C7948,9783 7803,9731 7545,9694C7338,9664 7313,9658 7227,9612C7096,9544 6984,9409 6871,9181C6842,9124 6822,9075 6825,9071C6829,9068 6992,9065 7188,9065C7480,9065 7567,9068 7664,9083C7799,9104 7973,9147 8073,9184C8411,9313 8679,9562 8781,9844L8799,9895L8800,9859C8800,9807 8757,9646 8723,9569C8706,9533 8676,9479 8656,9449C8636,9420 8620,9390 8620,9383C8620,9376 8638,9357 8661,9340C8797,9242 8994,9246 9113,9350C9262,9481 9285,9709 9190,10120C9175,10189 9130,10358 9092,10496C8958,10975 8944,11065 8906,11725C8898,11863 8886,12092 8881,12235C8864,12644 8861,12691 8843,12747C8824,12807 8809,12813 8767,12775Z" style="fill:none;fill-rule:nonzero;stroke:rgb(53,242,164);stroke-opacity:0.1;stroke-width:50.06px;"/>
        </g>
        <g transform="matrix(0.039405,0,0,-0.039405,2.885951,507.280102)">
            <path id="path2" d="M8524,12776C8429,12746 8305,12660 7925,12358C7583,12087 7448,11992 7305,11921C7098,11818 6911,11760 6490,11670C5985,11561 5668,11470 5266,11318C4896,11178 4471,10980 4150,10797C3914,10663 3773,10534 3698,10383C3658,10303 3655,10291 3652,10199C3646,10050 3679,9949 3763,9861C3800,9823 3888,9770 3915,9770C3921,9770 3936,9789 3949,9813C3994,9892 4113,10065 4193,10168C4272,10269 4301,10299 4261,10238C4186,10125 4112,9930 4080,9760C4034,9525 4032,9302 4071,8805C4139,7919 4234,7398 4417,6900C4457,6791 4580,6506 4593,6493C4602,6484 4684,6543 4731,6592C4785,6648 4850,6772 4877,6870C4901,6960 4901,7235 4876,7420C4866,7497 4856,7650 4853,7776C4845,8118 4873,8334 4979,8732C5055,9019 5073,9145 5074,9390C5075,9548 5070,9619 5056,9700C5033,9828 4991,9981 4952,10076L4923,10147L4990,10081C5050,10022 5168,9940 5195,9940C5200,9940 5215,9995 5227,10063C5273,10318 5383,10570 5538,10775C5592,10845 5738,10998 5795,11043L5835,11075L5789,11015C5597,10764 5460,10428 5330,9895C5120,9034 5059,8653 5059,8210C5060,7929 5089,7702 5152,7486L5172,7417L5194,7441C5207,7454 5291,7546 5381,7645C5471,7744 5597,7880 5661,7946C5891,8187 5915,8231 5980,8536C6024,8748 6056,8988 6090,9375C6125,9779 6139,9881 6175,10005C6214,10139 6259,10248 6394,10530C6462,10670 6527,10811 6540,10842C6563,10898 6565,10900 6624,10920C6657,10931 6688,10940 6692,10940C6697,10940 6678,10896 6651,10843C6486,10513 6372,10099 6325,9655C6308,9494 6305,9157 6320,9025C6334,8899 6351,8819 6362,8826C6383,8839 6672,9236 6813,9446C7469,10422 7853,11298 7930,11999C7941,12095 7945,12110 7960,12110C7978,12110 7982,12065 7990,11815C7997,11577 8008,11490 8028,11490C8034,11490 8557,12624 8599,12728C8612,12760 8612,12764 8595,12776C8573,12792 8577,12792 8524,12776Z" style="fill:none;fill-rule:nonzero;stroke:rgb(53,242,164);stroke-opacity:0.1;stroke-width:50.06px;"/>
        </g>
        <g transform="matrix(0.039405,0,0,-0.039405,2.885951,507.280102)">
            <path id="path3" d="M3262,10320C3200,10298 3009,10184 2832,10063C1474,9141 521,7649 250,6025C196,5698 185,5560 160,4885C147,4555 136,4459 76,4154C13,3836 -3,3701 3,3560C20,3207 193,2989 584,2824C816,2726 1644,2442 1765,2419C1858,2401 2042,2401 2103,2419C2165,2437 2234,2498 2256,2555C2286,2634 2272,2752 2207,2970C2176,3072 2124,3265 2090,3400C1851,4345 1838,4385 1735,4540C1643,4679 1524,4768 1208,4938C961,5071 917,5100 800,5215C735,5279 685,5350 655,5424C639,5462 643,5460 733,5374C864,5250 990,5163 1159,5077C1299,5007 1306,5005 1376,5005C1439,5005 1452,5008 1474,5029C1506,5060 1523,5111 1515,5153C1511,5170 1475,5268 1435,5370C1261,5810 1171,6225 1156,6660L1151,6795L1165,6688C1197,6440 1258,6214 1370,5936C1440,5762 1491,5648 1675,5264C1765,5076 1864,4863 1895,4792C2060,4404 2168,4029 2341,3250C2380,3071 2415,2923 2417,2920C2419,2918 2454,2932 2495,2953C2669,3043 2824,3261 2921,3552C2978,3720 2999,3840 3007,4020C3014,4202 3003,4344 2954,4690C2858,5369 2820,5887 2820,6510C2820,6867 2844,7455 2856,7415C2859,7406 2895,6797 2970,5500C3007,4867 3046,4624 3156,4368C3191,4285 3276,4140 3288,4140C3292,4140 3333,4215 3379,4306C3590,4722 3785,5026 4004,5278C4056,5338 4119,5418 4145,5456C4210,5553 4347,5827 4365,5896C4402,6039 4367,6332 4280,6602C4249,6699 4243,6737 4045,7962L3950,8549L3940,8817C3928,9131 3911,9259 3866,9392C3818,9532 3782,9585 3618,9757C3437,9946 3406,9999 3406,10125C3405,10190 3409,10213 3428,10250L3452,10294L3425,10317C3392,10346 3336,10347 3262,10320Z" style="fill:none;fill-rule:nonzero;stroke:rgb(53,242,164);stroke-opacity:0.1;stroke-width:50.06px;"/>
        </g>
        <g transform="matrix(0.039405,0,0,-0.039405,2.885951,507.280102)">
            <path id="path4" d="M9226,9294C9132,9211 8965,9147 8760,9116C8702,9107 8399,9068 8085,9030C7178,8918 6775,8868 6774,8867C6773,8866 6656,8714 6513,8530C6371,8346 6251,8189 6246,8182C6242,8175 6265,8181 6297,8196C6706,8380 7073,8472 7505,8500C7923,8526 8001,8532 8095,8546C8299,8575 8460,8632 8591,8720C8674,8776 8640,8736 8540,8661C8312,8490 8061,8415 7505,8355C7010,8302 6828,8260 6604,8147C6321,8005 6076,7750 5823,7335C5728,7180 5616,6980 5621,6976C5623,6974 5671,6961 5728,6946C6016,6874 6370,6892 6761,7000C7314,7151 7866,7466 8251,7850C8429,8028 8532,8164 8632,8355L8690,8465L8690,8349C8690,8224 8681,8184 8642,8131L8617,8098L8651,8105C8700,8116 8776,8151 8871,8207C9001,8284 9060,8303 9160,8303C9207,8302 9258,8298 9274,8293C9302,8284 9299,8282 9219,8256C8889,8144 8491,7896 8145,7586C7735,7217 7290,6970 6770,6821C6519,6750 6302,6716 5951,6695C5676,6678 5553,6657 5453,6611C5265,6523 5138,6384 4852,5954C4654,5657 4476,5352 4324,5049C4252,4904 4120,4623 4120,4613C4120,4603 4539,4671 4715,4710C5383,4859 6029,5114 6685,5488C7434,5915 8126,6446 8980,7250C9165,7425 9165,7421 8977,7187C8654,6786 8173,6298 7787,5981C7745,5946 7712,5915 7714,5913C7726,5900 7894,5879 8025,5874C8411,5857 8795,5959 9125,6164L9215,6220L9135,6142C8999,6010 8845,5923 8607,5845C8449,5793 8306,5762 7980,5709C7845,5687 7701,5663 7660,5654C7454,5613 7235,5543 7105,5477C7021,5435 6872,5335 6881,5326C6890,5319 7131,5269 7275,5245C7503,5208 7703,5189 7940,5181L8155,5174L8085,5141C7923,5064 7681,5030 7432,5049C7351,5055 7196,5071 7087,5085C6711,5132 6517,5135 6306,5095C6107,5058 5924,4991 5539,4817C5005,4576 4926,4549 4495,4460C4171,4393 4033,4327 3880,4163C3793,4070 3732,3977 3600,3740C3464,3495 3381,3373 3289,3278C3248,3235 3216,3200 3219,3200C3222,3200 3326,3190 3450,3179C3780,3149 4266,3143 4480,3165C4799,3197 5034,3255 5290,3365C5435,3427 5599,3526 5707,3617C5735,3640 5761,3660 5764,3660C5768,3660 5729,3599 5679,3524C5629,3449 5590,3387 5592,3385C5603,3376 6109,3530 6385,3628C6810,3779 7287,3997 7635,4201C8053,4445 8457,4763 8710,5044C8767,5108 8816,5158 8818,5155C8820,5153 8819,5126 8815,5095C8801,4979 8678,4789 8503,4613C8452,4561 8410,4516 8410,4513C8410,4510 8447,4510 8493,4512C8685,4524 8957,4658 9147,4834C9266,4944 9325,5053 9374,5253C9418,5427 9435,5631 9482,6540C9499,6860 9499,7756 9482,7980C9446,8466 9392,8838 9302,9221L9275,9338L9226,9294Z" style="fill:none;fill-rule:nonzero;stroke:rgb(53,242,164);stroke-opacity:0.1;stroke-width:50.06px;"/>
        </g>
        <g transform="matrix(0.039405,0,0,-0.039405,2.885951,507.280102)">
            <path id="path5" d="M5940,7956C5673,7722 5436,7425 5146,6961C5103,6893 4919,6578 4738,6261C3829,4677 3415,3994 2882,3205C2252,2271 1618,1478 982,829L799,642L795,484C789,289 774,155 749,76C739,43 732,15 733,14C736,11 980,275 1100,410C1653,1033 2215,1783 2740,2595C3200,3307 3611,4005 4330,5295C5156,6777 5444,7246 5904,7855C6025,8014 6044,8040 6038,8040C6036,8040 5992,8002 5940,7956Z" style="fill:none;fill-rule:nonzero;stroke:rgb(53,242,164);stroke-opacity:0.1;stroke-width:50.06px;"/>
        </g>
        <g transform="matrix(0.039405,0,0,-0.039405,2.885951,507.280102)">
            <path id="path6" d="M9345,4869C9341,4863 9340,4857 9343,4854C9345,4851 9350,4856 9353,4865C9360,4882 9354,4885 9345,4869Z" style="fill:none;fill-rule:nonzero;stroke:rgb(53,242,164);stroke-opacity:0.1;stroke-width:50.06px;"/>
        </g>
        <g transform="matrix(0.039405,0,0,-0.039405,2.885951,507.280102)">
            <path id="path7" d="M9265,4738C9186,4629 9030,4473 8954,4427C8877,4380 8780,4344 8698,4330C8663,4324 8538,4315 8420,4310C8264,4303 8182,4295 8121,4280C7974,4244 7860,4176 7809,4094C7783,4052 7781,4054 7885,4011C8043,3945 8222,3914 8405,3923C8585,3931 8738,3970 8893,4045L8965,4081L8914,4033C8728,3858 8403,3782 7962,3810C7865,3816 7731,3825 7665,3830C7213,3866 6902,3810 6685,3655C6575,3577 6510,3479 6510,3392C6510,3282 6599,3217 6860,3136C7105,3060 7277,3032 7535,3023C7742,3016 7905,3029 8089,3066C8157,3080 8215,3089 8217,3086C8223,3080 8113,3019 8020,2976C7658,2811 7204,2792 6840,2927C6788,2947 6648,3011 6530,3071C6217,3229 6108,3258 5876,3247C5809,3244 5406,3200 4980,3150C4554,3100 4088,3046 3945,3030C3477,2976 3340,2945 3166,2859C3021,2787 2966,2726 2863,2525C2827,2454 2786,2378 2773,2358C2761,2337 2750,2317 2750,2312C2750,2307 2823,2293 2912,2281C3002,2269 3242,2232 3445,2199C4312,2059 4560,2034 5019,2043C5237,2047 5336,2053 5490,2074C5951,2136 6214,2201 6389,2296C6475,2343 6590,2431 6641,2489L6682,2535L6649,2475C6631,2442 6599,2384 6578,2347C6557,2309 6540,2277 6540,2275C6540,2273 6572,2264 6611,2255C7029,2160 7492,2216 7873,2406C7910,2425 7940,2438 7940,2435C7940,2421 7703,2277 7570,2211C7256,2055 6967,1976 6609,1949C6524,1943 6418,1941 6373,1944C6321,1949 6290,1947 6290,1941C6290,1928 6424,1808 6505,1749C6582,1693 6738,1612 6830,1580C6866,1567 6899,1553 6904,1549C6920,1535 6795,1527 6719,1538C6608,1554 6506,1597 6319,1706C6126,1820 6060,1852 5948,1884C5779,1933 5587,1939 5340,1904C5235,1889 4949,1832 4941,1825C4932,1816 5046,1677 5120,1606C5347,1390 5677,1261 5975,1272C6086,1276 6078,1267 5949,1244C5742,1208 5500,1244 5305,1339C5175,1403 5127,1440 4945,1617C4720,1837 4650,1872 4435,1873C4359,1874 4248,1867 4170,1856C3918,1822 3748,1840 3495,1930C3091,2074 3011,2094 2835,2094C2704,2094 2625,2078 2536,2033C2478,2003 2420,1962 2420,1949C2420,1938 2618,1649 2713,1520C2895,1273 3098,1050 3271,905C3559,664 3885,520 4284,458C4401,440 4470,436 4685,436C4958,435 5059,443 5320,486C6248,639 7115,1063 7815,1707C8600,2428 9139,3454 9300,4533C9321,4674 9336,4820 9329,4820C9326,4820 9297,4783 9265,4738Z" style="fill:none;fill-rule:nonzero;stroke:rgb(53,242,164);stroke-opacity:0.1;stroke-width:50.06px;"/>
        </g>
    </g>
</svg>
